Newaita-dark/actions/scalable/document-print.svg

<?xml version="1.0" encoding="UTF-8"?>
<svg xmlns="http://www.w3.org/2000/svg" xmlns:xlink="http://www.w3.org/1999/xlink" width="512pt" height="512pt" viewBox="0 0 512 512" version="1.1">
<g id="surface1">
<path style=" stroke:none;fill-rule:nonzero;fill:rgb(74.117649%,74.117649%,74.117649%);fill-opacity:1;" d="M 116.429688 25.167969 C 98.835938 25.167969 84.675781 39.332031 84.675781 56.921875 L 84.675781 258.023438 L 74.089844 258.023438 C 56.5 258.023438 42.335938 272.1875 42.335938 289.777344 L 42.335938 385.035156 C 42.335938 402.628906 56.5 416.789062 74.089844 416.789062 L 84.675781 416.789062 L 84.675781 385.035156 C 78.8125 385.035156 74.089844 380.316406 74.089844 374.453125 L 74.089844 300.363281 C 74.089844 294.496094 78.8125 289.777344 84.675781 289.777344 L 423.375 289.777344 C 429.238281 289.777344 433.957031 294.496094 433.957031 300.363281 L 433.957031 374.453125 C 433.957031 380.316406 429.238281 385.035156 423.375 385.035156 L 423.375 416.789062 L 433.957031 416.789062 C 451.550781 416.789062 465.710938 402.628906 465.710938 385.035156 L 465.710938 289.777344 C 465.710938 272.1875 451.550781 258.023438 433.957031 258.023438 L 423.375 258.023438 L 423.375 56.921875 C 423.375 39.332031 409.210938 25.167969 391.621094 25.167969 Z M 127.011719 56.921875 L 381.035156 56.921875 C 386.898438 56.921875 391.621094 61.640625 391.621094 67.507812 L 391.621094 258.023438 L 116.429688 258.023438 L 116.429688 67.507812 C 116.429688 61.640625 121.148438 56.921875 127.011719 56.921875 Z M 127.011719 56.921875 "/>
<path style=" stroke:none;fill-rule:nonzero;fill:rgb(47.058824%,56.470591%,61.176473%);fill-opacity:1;" d="M 116.429688 322.953125 C 98.835938 322.953125 84.675781 337.117188 84.675781 354.707031 L 84.675781 459.125 C 84.675781 476.71875 98.835938 490.878906 116.429688 490.878906 L 391.621094 490.878906 C 409.210938 490.878906 423.375 476.71875 423.375 459.125 L 423.375 354.707031 C 423.375 337.117188 409.210938 322.953125 391.621094 322.953125 Z M 127.011719 354.707031 L 381.035156 354.707031 C 386.898438 354.707031 391.621094 359.425781 391.621094 365.289062 L 391.621094 448.542969 C 391.621094 454.40625 386.898438 459.125 381.035156 459.125 L 127.011719 459.125 C 121.148438 459.125 116.429688 454.40625 116.429688 448.542969 L 116.429688 365.289062 C 116.429688 359.425781 121.148438 354.707031 127.011719 354.707031 Z M 127.011719 354.707031 "/>
</g>
</svg>

<svg xmlns="http://www.w3.org/2000/svg" width="512pt" height="512pt" viewBox="0 0 512 512"><path d="M116.43 25.168c-17.594 0-31.754 14.164-31.754 31.754v201.101H74.09c-17.59 0-31.754 14.164-31.754 31.754v95.258c0 17.594 14.164 31.754 31.754 31.754h10.586v-31.754a10.561 10.561 0 0 1-10.586-10.582v-74.09a10.562 10.562 0 0 1 10.586-10.586h338.699a10.559 10.559 0 0 1 10.582 10.586v74.09a10.558 10.558 0 0 1-10.582 10.582v31.754h10.582a31.682 31.682 0 0 0 31.754-31.754v-95.258c0-17.59-14.16-31.754-31.754-31.754h-10.582V56.922c0-17.59-14.164-31.754-31.754-31.754zm10.582 31.754h254.023a10.562 10.562 0 0 1 10.586 10.586v190.515H116.43V67.508a10.559 10.559 0 0 1 10.582-10.586zm0 0" fill="#bdbdbd"/><path d="M116.43 322.953c-17.594 0-31.754 14.164-31.754 31.754v104.418a31.682 31.682 0 0 0 31.754 31.754H391.62c17.59 0 31.754-14.16 31.754-31.754V354.707c0-17.59-14.164-31.754-31.754-31.754zm10.582 31.754h254.023a10.561 10.561 0 0 1 10.586 10.582v83.254a10.561 10.561 0 0 1-10.586 10.582H127.012a10.558 10.558 0 0 1-10.582-10.582v-83.254a10.558 10.558 0 0 1 10.582-10.582zm0 0" fill="#78909c"/></svg>
